X:110
T:Allemand le Grand. THO5.110
R:Allemand
M:2/4
L:1/8
B:Thompson's Complete Collection of 200 Favourite Dances Vol.5
F:https://www.libraryofdance.org/manuals/1780c-Thompson-Compleat-5.pdf
Z:vmp. Peter Dunk 2024
Q:1/4=120
K:F
fccc|afff|efga|(f/e/f/g/) ff|\\
fccc|afff|efga|g3-f:|
|:g3a|bagf|efga|(g/f/g/a/) gg|\\
g3a|bagf|efga|g3-f:|
W:
W:First & 2nd Couple change sides and back again ./.
W:The hands across and back again ./:
W:Lead down the middle, up again and cast off :/.
W:Allemand with your Right hand then with your Left :/:

